src/icons/order-list.svg

<svg width="24" height="24" viewBox="0 0 24 24" fill="none" xmlns="http://www.w3.org/2000/svg">
<path d="M1.28656 10.0001V8.5001H2.80656V5.5201C2.80656 5.2501 2.81656 4.9701 2.81656 4.9701H2.79657C2.79657 4.9701 2.70657 5.1701 2.51656 5.3501L2.08657 5.7401L1.07656 4.6601L3.00657 2.8501H4.51656V8.5001H6.04657V10.0001H1.28656Z" fill="black"/>
<path d="M8 4.0001H22V6.0001H8V4.0001Z" fill="black"/>
<path d="M8 11.0001H22V13.0001H8V11.0001Z" fill="black"/>
<path d="M22 18.0001H8V20.0001H22V18.0001Z" fill="black"/>
<path d="M0.977073 20.2301C0.977073 20.4701 1.00707 20.7201 1.05707 21.0001H6.00707V19.5001H2.96707C2.98642 19.1441 3.4294 18.8615 3.96532 18.5197C4.81453 17.9779 5.89707 17.2873 5.89707 15.9201C5.89707 14.4001 4.62707 13.7301 3.45707 13.7301C1.59707 13.7301 0.937073 15.2701 0.937073 15.2701L2.23707 16.1401C2.23707 16.1401 2.61707 15.3801 3.29707 15.3801C3.66707 15.3801 4.06707 15.5901 4.06707 16.0901C4.06707 16.4861 3.61031 16.7993 3.04802 17.1849C2.1478 17.8023 0.977073 18.6051 0.977073 20.2301Z" fill="black"/>
</svg>

<svg xmlns="http://www.w3.org/2000/svg" width="24" height="24" fill="none"><path fill="currentColor" d="M1.287 10V8.5h1.52V5.52c0-.27.01-.55.01-.55h-.02s-.09.2-.28.38l-.43.39-1.01-1.08 1.93-1.81h1.51V8.5h1.53V10zM8 4h14v2H8zm0 7h14v2H8zm14 7H8v2h14zM.977 20.23c0 .24.03.49.08.77h4.95v-1.5h-3.04c.02-.356.462-.639.998-.98.85-.542 1.932-1.233 1.932-2.6 0-1.52-1.27-2.19-2.44-2.19-1.86 0-2.52 1.54-2.52 1.54l1.3.87s.38-.76 1.06-.76c.37 0 .77.21.77.71 0 .396-.457.71-1.019 1.095-.9.617-2.07 1.42-2.07 3.045"/></svg>
